src/assets/images/gitlab-brands.svg

<?xml version="1.0" encoding="UTF-8" standalone="no" ?>
<!DOCTYPE svg PUBLIC "-//W3C//DTD SVG 1.1//EN" "http://www.w3.org/Graphics/SVG/1.1/DTD/svg11.dtd">
<svg xmlns="http://www.w3.org/2000/svg" xmlns:xlink="http://www.w3.org/1999/xlink" version="1.1" width="600" height="600" viewBox="0 0 600 600" xml:space="preserve">
<desc>Created with Fabric.js 5.2.4</desc>
<defs>
</defs>
<rect x="0" y="0" width="100%" height="100%" fill="transparent"></rect>
<g transform="matrix(1 0 0 1 300 300)" id="d4b08e96-9eb7-4f4d-99be-681db56ad8f5"  >
<rect style="stroke: none; stroke-width: 1; stroke-dasharray: none; stroke-linecap: butt; stroke-dashoffset: 0; stroke-linejoin: miter; stroke-miterlimit: 4; fill: rgb(255,255,255); fill-rule: nonzero; opacity: 1; visibility: hidden;" vector-effect="non-scaling-stroke"  x="-300" y="-300" rx="0" ry="0" width="600" height="600" />
</g>
<g transform="matrix(Infinity NaN NaN Infinity 0 0)" id="9692dca2-d170-49df-a60f-e6fd93e45e75"  >
</g>
<g transform="matrix(NaN NaN NaN NaN 0 0)"  >
<g style=""   >
</g>
</g>
<g transform="matrix(3.01 0 0 3.01 300 300)"  >
<g style="" vector-effect="non-scaling-stroke"   >
		<g transform="matrix(1 0 0 1 0 -0.02)"  >
<path style="stroke: none; stroke-width: 1; stroke-dasharray: none; stroke-linecap: butt; stroke-dashoffset: 0; stroke-linejoin: miter; stroke-miterlimit: 4; fill: rgb(226,67,41); fill-rule: nonzero; opacity: 1;" vector-effect="non-scaling-stroke"  transform=" translate(-190, -189.99)" d="M 282.83 170.73 L 282.56 170.04 L 256.42 101.82 C 255.88816237369588 100.48292267912402 254.9464564516972 99.34867465411446 253.73000000000002 98.58 C 251.23681453513302 97.03230184743333 248.0429227664042 97.2039735300025 245.73000000000002 99.01 C 244.61332337075052 99.91705108587878 243.80324215417158 101.1461398282744 243.41000000000003 102.53 L 225.76000000000002 156.53 L 154.29 156.53 L 136.64 102.53 C 136.25720823168356 101.13860148833241 135.44537495700223 99.90335516952847 134.32 99 C 132.00707723359582 97.1939735300025 128.813185464867 97.02230184743333 126.32 98.57 C 125.10627359198936 99.34177843185367 124.16539055705246 100.47503532151745 123.63 101.80999999999999 L 97.44 170 L 97.17999999999999 170.69 C 89.44950991924833 190.888540765201 96.01474693012453 213.76492562918577 113.28 226.79 L 113.37 226.85999999999999 L 113.61 227.02999999999997 L 153.43 256.84999999999997 L 173.13 271.76 L 185.13 280.82 C 188.01470179553982 283.01023402368014 192.00529820446016 283.01023402368014 194.89 280.82 L 206.89 271.76 L 226.58999999999997 256.84999999999997 L 266.65 226.84999999999997 L 266.75 226.76999999999995 C 283.97487080079367 213.74375478112856 290.5274827738871 190.90741305400462 282.83 170.72999999999996 Z" stroke-linecap="round" />
</g>
		<g transform="matrix(1 0 0 1 48.02 23.46)"  >
<path style="stroke: none; stroke-width: 1; stroke-dasharray: none; stroke-linecap: butt; stroke-dashoffset: 0; stroke-linejoin: miter; stroke-miterlimit: 4; fill: rgb(252,109,38); fill-rule: nonzero; opacity: 1;" vector-effect="non-scaling-stroke"  transform=" translate(-238.02, -213.46)" d="M 282.83 170.73 L 282.56 170.04 C 269.8229298855885 172.65442018679317 257.82044034262236 178.04956484622036 247.41 185.84 L 190 229.25 C 209.55 244.04 226.57 256.89 226.57 256.89 L 266.63 226.89 L 266.73 226.80999999999997 C 283.9803250922401 213.78365352651375 290.54334065047465 190.9231620665266 282.83 170.72999999999996 Z" stroke-linecap="round" />
</g>
		<g transform="matrix(1 0 0 1 0.01 65.87)"  >
<path style="stroke: none; stroke-width: 1; stroke-dasharray: none; stroke-linecap: butt; stroke-dashoffset: 0; stroke-linejoin: miter; stroke-miterlimit: 4; fill: rgb(252,163,38); fill-rule: nonzero; opacity: 1;" vector-effect="non-scaling-stroke"  transform=" translate(-190.01, -255.88)" d="M 153.43 256.89 L 173.13 271.8 L 185.13 280.86 C 188.01470179553982 283.05023402368016 192.00529820446016 283.05023402368016 194.89 280.86 L 206.89 271.8 L 226.58999999999997 256.89 C 226.58999999999997 256.89 209.55 244 190 229.25 C 170.45 244 153.43 256.89 153.43 256.89 Z" stroke-linecap="round" />
</g>
		<g transform="matrix(1 0 0 1 -48.02 23.42)"  >
<path style="stroke: none; stroke-width: 1; stroke-dasharray: none; stroke-linecap: butt; stroke-dashoffset: 0; stroke-linejoin: miter; stroke-miterlimit: 4; fill: rgb(252,109,38); fill-rule: nonzero; opacity: 1;" vector-effect="non-scaling-stroke"  transform=" translate(-141.98, -213.43)" d="M 132.58 185.84 C 122.1779358624644 178.03351038569755 110.1780188213104 172.62432751911024 97.44000000000003 170.00000000000003 L 97.17999999999999 170.69 C 89.44950991924833 190.888540765201 96.01474693012453 213.76492562918577 113.28 226.79 L 113.37 226.85999999999999 L 113.61 227.02999999999997 L 153.43 256.84999999999997 C 153.43 256.84999999999997 170.43 243.99999999999997 190 229.20999999999998 Z" stroke-linecap="round" />
</g>
</g>
</g>
</svg>

<svg xmlns="http://www.w3.org/2000/svg" viewBox="0 0 380 380"><defs><style>.cls-1{fill:#e24329;}.cls-2{fill:#fc6d26;}.cls-3{fill:#fca326;}</style></defs><g id="LOGO"><path class="cls-1" d="M282.83,170.73l-.27-.69-26.14-68.22a6.81,6.81,0,0,0-2.69-3.24,7,7,0,0,0-8,.43,7,7,0,0,0-2.32,3.52l-17.65,54H154.29l-17.65-54A6.86,6.86,0,0,0,134.32,99a7,7,0,0,0-8-.43,6.87,6.87,0,0,0-2.69,3.24L97.44,170l-.26.69a48.54,48.54,0,0,0,16.1,56.1l.09.07.24.17,39.82,29.82,19.7,14.91,12,9.06a8.07,8.07,0,0,0,9.76,0l12-9.06,19.7-14.91,40.06-30,.1-.08A48.56,48.56,0,0,0,282.83,170.73Z"/><path class="cls-2" d="M282.83,170.73l-.27-.69a88.3,88.3,0,0,0-35.15,15.8L190,229.25c19.55,14.79,36.57,27.64,36.57,27.64l40.06-30,.1-.08A48.56,48.56,0,0,0,282.83,170.73Z"/><path class="cls-3" d="M153.43,256.89l19.7,14.91,12,9.06a8.07,8.07,0,0,0,9.76,0l12-9.06,19.7-14.91S209.55,244,190,229.25C170.45,244,153.43,256.89,153.43,256.89Z"/><path class="cls-2" d="M132.58,185.84A88.19,88.19,0,0,0,97.44,170l-.26.69a48.54,48.54,0,0,0,16.1,56.1l.09.07.24.17,39.82,29.82s17-12.85,36.57-27.64Z"/></g></svg>
